assets/images/reset.svg

<?xml version="1.0" encoding="UTF-8"?>
<svg width="84px" height="93px" viewBox="0 0 84 93" version="1.1" xmlns="http://www.w3.org/2000/svg" xmlns:xlink="http://www.w3.org/1999/xlink">
    <!-- Generator: Sketch 51.2 (57519) - http://www.bohemiancoding.com/sketch -->
    <title>Reset settings</title>
    <desc>Created with Sketch.</desc>
    <defs></defs>
    <g id="Page-1" stroke="none" stroke-width="1" fill="none" fill-rule="evenodd" opacity="0.500725">
        <g id="Reset-settings" fill="#FF4081" fill-rule="nonzero">
            <path d="M66.598,16.753 C64.876,15.513 62.485,15.901 61.249,17.619 C60.007,19.335 60.396,21.732 62.114,22.969 C75.727,32.787 80.135,50.826 72.596,65.859 C68.514,73.997 61.508,80.061 52.87,82.925 C44.234,85.796 34.993,85.125 26.857,81.046 C18.723,76.963 12.66,69.958 9.791,61.324 C6.925,52.682 7.594,43.447 11.677,35.31 C16.635,25.42 26.135,18.531 37.09,16.881 C37.164,16.873 37.227,16.845 37.301,16.828 L37.458,24.399 C37.479,25.238 38,25.984 38.779,26.288 C39.561,26.593 40.451,26.398 41.029,25.792 L51.933,14.413 C52.727,13.585 52.697,12.271 51.871,11.48 L40.492,0.577 C39.886,-0.005 38.993,-0.162 38.225,0.178 C37.974,0.286 37.749,0.447 37.563,0.64 C37.191,1.029 36.978,1.559 36.984,2.119 L37.135,9.331 C36.75,9.268 36.355,9.244 35.947,9.304 C22.529,11.325 10.895,19.764 4.822,31.875 C-5.499,52.451 2.85,77.584 23.424,87.901 C29.413,90.906 35.786,92.33 42.07,92.33 C57.376,92.33 72.135,83.891 79.452,69.302 C88.688,50.884 83.284,28.782 66.598,16.753 Z" id="Shape"></path>
        </g>
    </g>
</svg>

<svg xmlns="http://www.w3.org/2000/svg" viewBox="0 0 92 92" width="84" height="84">
	<style>
		tspan { white-space:pre }
		.shp0 { fill: #ff4081 } 
	</style>
	<g id="Page-1" style="opacity: 0.502">
		<g id="Reset-settings">
			<path id="Shape" class="shp0" d="M66.6,16.75c-1.72,-1.24 -4.11,-0.85 -5.35,0.87c-1.24,1.72 -0.85,4.11 0.86,5.35c13.61,9.82 18.02,27.86 10.48,42.89c-4.08,8.14 -11.09,14.2 -19.73,17.07c-8.64,2.87 -17.88,2.2 -26.01,-1.88c-8.13,-4.08 -14.2,-11.09 -17.07,-19.72c-2.87,-8.64 -2.2,-17.88 1.89,-26.01c4.96,-9.89 14.46,-16.78 25.41,-18.43c0.07,-0.01 0.14,-0.04 0.21,-0.05l0.16,7.57c0.02,0.84 0.54,1.59 1.32,1.89c0.78,0.3 1.67,0.11 2.25,-0.5l10.9,-11.38c0.79,-0.83 0.76,-2.14 -0.06,-2.93l-11.38,-10.9c-0.61,-0.58 -1.5,-0.74 -2.27,-0.4c-0.25,0.11 -0.48,0.27 -0.66,0.46c-0.37,0.39 -0.59,0.92 -0.58,1.48l0.15,7.21c-0.38,-0.06 -0.78,-0.09 -1.19,-0.03c-13.42,2.02 -25.05,10.46 -31.13,22.57c-10.32,20.58 -1.97,45.71 18.6,56.03c5.99,3.01 12.36,4.43 18.65,4.43c15.31,0 30.07,-8.44 37.38,-23.03c9.24,-18.42 3.83,-40.52 -12.85,-52.55z" />
		</g>
	</g>
</svg>
